!!!COM:	Martini, Johannes
!!!CDT:	~1440///-~1497//
!!!OTL:	Dixit Dominus
!!!AGN:	Motet
!!!SCT:	Mar2029
!!!SCA:	Mar2029
!!!voices:	2
**kern	**kern
*staff2	*staff1
*Ivox	*Ivox
*I"Tenor	*I"Superius
*I'T	*I'S
*>[A,B,C,D,E,F,G,H,I,J]	*>[A,B,C,D,E,F,G,H,I,J]
*>A	*>A
*clefGv2	*clefG2
*k[]	*k[]
*M2/1	*M2/1
*met(C)	*met(C)
=1-	=1-
!!section: Sede a dextris
!!!OMD: Sede a dextris
!!LO:TX:Z=8:t=Choir 1
1c	1cc
1e	1cc
=2	=2
1e	1cc
2d\	2b\
[2e\	[2cc\
=3	=3
2e\]	2cc\]
4d\	4b\
4c\	4a/
2B\	2g/
[2c\	[2a/
=4	=4
2c\]	2a/]
2B\	1g
1A	.
.	2f#i/
=5	=5
0Gl	0gl
=6||	=6||
*>B	*>B
!!LO:TX:Z=8:t=Choir 2
!!section: Donec ponam
!!!OMD: Donec ponam
2c\	2cc\
2c\	2cc\
1e	1cc
=7	=7
1e	1cc
2e\	2cc\
2e\	2cc\
=8	=8
2d\	2b\
2e\	2cc\
1f	1dd
=9	=9
1c	1cc
1r	1r
=10	=10
2e\	2cc\
2e\	2cc\
2e\	2cc\
2d\	2b\
=11	=11
1c	2cc\
.	1a
2c\	.
2B\	[2g/
=12	=12
1A	2g/]
.	2f#i/
1Gl	1gl
=13||	=13||
*>C	*>C
!!LO:TX:Z=8:t=Choir 1
!!section: Virgam virtutis
!!!OMD: Virgam virtutis
1c	1cc
1e	1cc
=14	=14
2e\	2cc\
2e\	2cc\
2e\	2cc\
2e\	2cc\
=15	=15
1c	1cc
2e\	2cc\
2e\	2cc\
=16	=16
1e	1cc
2c\	2cc\
2d\	2b\
=17	=17
2e\	2cc\
1f	1dd
2e\	[2cc\
=18	=18
1d	2cc\]
.	2b\
1c	1cc
=19	=19
1r	1r
2e\	2cc\
2e\	2cc\
=20	=20
1e	1cc
2e\	2cc\
2e\	2cc\
=21	=21
2e\	2cc\
2e\	2cc\
1e	1cc
=22	=22
1c	1cc
2d\	2b\
[2e\	[2cc\
=23	=23
2e\]	2cc\]
2d\	4b\
.	4a/
2B\	2g/
2c\	[2a/
=24	=24
2d\	2a/]
2B\	1g
1A	.
.	2f#i/
=25	=25
0Gl	0gl
=26||	=26||
*>D	*>D
!!section: Tecum principum
!!!OMD: Tecum principum
!!LO:TX:Z=8:t=Choir 2
1c	1cc
2e\	2cc\
2e\	2cc\
=27	=27
2e\	2cc\
2e\	2cc\
1e	1cc
=28	=28
1e	1cc
2e\	2cc\
2d\	2b\
=29	=29
2c\	2a/
1d	1b
2c\	[2a/
=30	=30
1B	2a/]
.	2g#i/
1A	1a
=31	=31
2r	2r
1e	2cc\
.	2cc\
2e\	2cc\
=32	=32
2d\	2b\
2e\	2cc\
2f\	2dd\
2e\	[2cc\
=33	=33
1d	2cc\]
.	2b\
1c	1cc
=34	=34
1r	1r
1e	1cc
=35	=35
2e\	2cc\
2e\	2cc\
1e	1cc
=36	=36
1e	1cc
2e\	2cc\
2e\	2cc\
=37	=37
2e\	2cc\
2e\	2cc\
1e	1cc
=38	=38
2d\	2b\
2c\	2cc\
1d	2b\
.	[2a/
=39	=39
2c\	2a/]
2B\	1g
1A	.
.	2f#i/
=40	=40
0Gl	0gl
=41||	=41||
*>E	*>E
!!LO:TX:Z=8:t=Choir 1
!!section: Juravit
!!!OMD: Juravit
1c	1cc
2e\	2cc\
2e\	2cc\
=42	=42
2d\	2b\
2d\	2b\
1A	1a
=43	=43
1e	2r
.	2cc\
2e\	2cc\
2e\	2cc\
=44	=44
2e\	2cc\
2e\	2cc\
1e	1cc
=45	=45
2f\	2dd\
1g	1ee
2e\	[2cc\
=46	=46
1d	2cc\]
.	2b\
1c	1cc
=47	=47
1r	1r
2e\	2cc\
2e\	2cc\
=48	=48
2e\	2cc\
2e\	2cc\
2e\	2cc\
2e\	2cc\
=49	=49
2e\	2cc\
2e\	2cc\
1c	1cc
=50	=50
2e\	2cc\
2e\	2cc\
1e	1cc
=51	=51
2d\	2b\
1e	1cc
4d\	4b\
4c\	4a/
=52	=52
2B\	2g/
1c	1a
2B\	[2g/
=53	=53
1A	2g/]
.	2f#i/
1Gl	1gl
=54||	=54||
*>F	*>F
!!LO:TX:Z=8:t=Choir 2
!!section: Dominus a dextris
!!!OMD: Dominus a dextris
1c	1cc
2e\	2cc\
2e\	2cc\
=55	=55
1e	1cc
2d\	2b\
2e\	2cc\
=56	=56
1f	1dd
1c	1cc
=57	=57
1r	1r
2e\	2cc\
2e\	2cc\
=58	=58
1e	1cc
1e	1cc
=59	=59
2e\	2cc\
2e\	2cc\
1d	1b
=60	=60
1c	2a/
.	2cc\
1d	2b\
.	[2a/
=61	=61
2c\	2a/]
2B\	1g
1A	.
.	2f#i/
=62	=62
0Gl	0gl
=63||	=63||
*>G	*>G
!!LO:TX:Z=8:t=Choir 1
!!section: Judicabit
!!!OMD: Judicabit
1c	1cc
2e\	2cc\
2e\	2cc\
=64	=64
1e	1cc
1e	1cc
=65	=65
2e\	2cc\
2e\	2cc\
2e\	2cc\
2e\	2cc\
=66	=66
1e	1cc
2c\	2cc\
2d\	2b\
=67	=67
2e\	2cc\
1f	1dd
2e\	[2cc\
=68	=68
1d	2cc\]
.	2b\
1c	1cc
=69	=69
1r	1r
2e\	2cc\
2e\	2cc\
=70	=70
2e\	2cc\
2e\	2cc\
2e\	2cc\
2e\	2cc\
=71	=71
1e	1cc
2d\	2b\
2c\	2a/
=72	=72
2B\	2g/
1c	1a
2G/	[2g/
=73	=73
1A	2g/]
.	2f#i/
1Gl	1gl
=74||	=74||
*>H	*>H
!!section: Detorrente
!!!OMD: Detorrente
!!LO:TX:Z=8:t=Choir 2
2c\	2cc\
2c\	2cc\
1e	1cc
=75	=75
1e	1cc
2c\	2cc\
2d\	2b\
=76	=76
2e\	2cc\
1f	1dd
2e\	[2cc\
=77	=77
1d	2cc\]
.	2b\
1c	1cc
=78	=78
1r	1r
1e	1cc
=79	=79
2e\	2cc\
2e\	2cc\
1e	1cc
=80	=80
1d	1b
2c\	2a/
2c\	2cc\
=81	=81
1d	2b\
.	1a
2c\	.
2B\	[2g/
=82	=82
1A	2g/]
.	2f#i/
1Gl	1gl
=83||	=83||
*>I	*>I
!!LO:TX:Z=8:t=Choir 1
!!section: Gloria patri
!!!OMD: Gloria patri
1c	1cc
2e\	2cc\
2e\	2cc\
=84	=84
1d	1b
2e\	2cc\
[2f\	[2dd\
=85	=85
2f\]	2dd\]
2e\	1cc
1d	.
.	2b\
=86	=86
1c	1cc
1r	1r
=87	=87
1e	1cc
1e	1cc
=88	=88
2d\	2b\
1e	1cc
4d\	4b\
4c\	4a/
=89	=89
2B\	2g/
1c	1a
2B\	[2g/
=90	=90
1A	2g/]
.	2f#i/
1Gl	1gl
=91||	=91||
*>J	*>J
!!section: Sicut erat
!!!OMD: Sicut erat
!!LO:TX:Z=8:t=Choir 2
2c\	2cc\
2c\	2cc\
2e\	2cc\
2e\	2cc\
=92	=92
2e\	2cc\
2e\	2cc\
2e\	2cc\
2e\	2cc\
=93	=93
1e	1cc
2e\	2cc\
2d\	[2dd\
=94	=94
2f\	2dd\]
2e\	1cc
1d	.
.	2b\
=95	=95
1c	1cc
1r	1r
=96	=96
2e\	2cc\
2e\	2cc\
2e\	2cc\
2e\	2cc\
=97	=97
1e	1cc
2d\	2b\
2c\	2a/
=98	=98
2B\	2g/
1c	1a
2B\	[2g/
=99	=99
1A	2g/]
.	2f#i/
1Gl	1gl
==	==
*-	*-
!!!RDF**kern: l=long note in original notation
!!!RDF**kern: i=editorial accidental
!!!ENC:	Chris Gage 01-27-2014
!!!END:	2014/10/06/
!!!EED:	Jesse Rodin
!!!EEV:	2014/10/17/
!!!ONB:	Translated from MusicXML and edited on 2014/10/17/ by Craig Sapp
!!muse2ps: C^@{COM}^i2I150v85,150Q16
